poi_prison.svg

<?xml version="1.0" encoding="UTF-8" standalone="no"?>
<svg
   xmlns:dc="http://purl.org/dc/elements/1.1/"
   xmlns:cc="http://creativecommons.org/ns#"
   xmlns:rdf="http://www.w3.org/1999/02/22-rdf-syntax-ns#"
   xmlns:svg="http://www.w3.org/2000/svg"
   xmlns="http://www.w3.org/2000/svg"
   xmlns:sodipodi="http://sodipodi.sourceforge.net/DTD/sodipodi-0.dtd"
   xmlns:inkscape="http://www.inkscape.org/namespaces/inkscape"
   viewBox="0 0 300 300"
   width="300"
   height="300"
   id="svg8287"
   version="1.1"
   inkscape:version="0.91 r13725"
   sodipodi:docname="poi_prison.svg">
  <sodipodi:namedview
     pagecolor="#ffffff"
     bordercolor="#666666"
     borderopacity="1"
     objecttolerance="10"
     gridtolerance="10"
     guidetolerance="10"
     inkscape:pageopacity="0"
     inkscape:pageshadow="2"
     inkscape:window-width="1600"
     inkscape:window-height="837"
     id="namedview8319"
     showgrid="false"
     inkscape:zoom="1.5733333"
     inkscape:cx="274.01017"
     inkscape:cy="126.01495"
     inkscape:window-x="-8"
     inkscape:window-y="-8"
     inkscape:window-maximized="1"
     inkscape:current-layer="svg8287" />
  <metadata
     id="metadata8323">
    <rdf:RDF>
      <cc:Work
         rdf:about="">
        <dc:format>image/svg+xml</dc:format>
        <dc:type
           rdf:resource="http://purl.org/dc/dcmitype/StillImage" />
      </cc:Work>
    </rdf:RDF>
  </metadata>
  <defs
     id="defs8321" />
  <style
     id="style8289">  .a{fill:#808080;}.b{stroke-width:10;stroke:#000;}.c{fill:none;stroke-width:10;stroke:#000;}</style>
  <style
     id="style8291">    .a{fill:#808080;}.b{stroke-width:10;stroke:#000;}.c{fill:none;stroke-width:10;stroke:#000;}</style>
  <circle
     id="circle8293"
     fill="#808080"
     class="a"
     r="150"
     cy="150"
     cx="150" />
  <path
     transform="matrix(1.000000,0.000000,0.000000,1.000000,0.000000,0.000000)"
     id="path8295"
     fill="#4d4d4d"
     d="M298.0 135.0L249.0 79.0L248.0 218.0L52.0 218.0L119.0 295.0C236.0 318.0 310.0 216.0 298.0 135.0Z" />
  <rect
     transform="matrix(1.000000,0.000000,0.000000,1.000000,0.000000,0.000000)"
     id="rect8297"
     fill="#e6e6e6"
     y="83.0"
     x="48.0"
     height="139.0"
     width="200.0" />
  <path
     transform="matrix(1.000000,0.000000,0.000000,1.000000,0.000000,0.000000)"
     id="path8299"
     class="b"
     d="M34.0 82.0C263.0 82.0 263.0 82.0 263.0 82.0L263.0 82.0L263.0 82.0" />
  <path
     transform="matrix(1.000000,0.000000,0.000000,1.000000,0.000000,0.000000)"
     id="path8301"
     fill="#f60"
     d="M147.0 180.0C108.0 194.0 84.0 184.0 72.0 220.0L221.0 220.0C199.0 182.0 194.0 194.0 147.0 180.0Z" />
  <path
     transform="matrix(1.000000,0.000000,0.000000,1.000000,0.000000,0.000000)"
     id="path8303"
     class="b"
     d="M34.0 221.0C263.0 221.0 263.0 221.0 263.0 221.0L263.0 221.0L263.0 221.0" />
  <path
     transform="matrix(1.000000,0.000000,0.000000,1.000000,0.000000,0.000000)"
     id="path8305"
     class="c"
     d="M51.0 67.0C51.0 236.0 51.0 236.0 51.0 236.0" />
  <path
     transform="matrix(1.000000,0.000000,0.000000,1.000000,0.000000,0.000000)"
     id="path8307"
     class="c"
     d="M246.0 67.0C246.0 236.0 246.0 236.0 246.0 236.0" />
  <path
     transform="matrix(1.000000,0.000000,0.000000,1.000000,0.000000,0.000000)"
     id="path8309"
     class="c"
     d="M92.0 67.0C92.0 236.0 92.0 236.0 92.0 236.0" />
  <path
     transform="matrix(1.000000,0.000000,0.000000,1.000000,0.000000,0.000000)"
     id="path8311"
     class="c"
     d="M206.0 67.0C206.0 236.0 206.0 236.0 206.0 236.0" />
  <circle
     id="circle8313"
     style="fill:#deaa87;stroke-width:10"
     r="41"
     cy="146"
     cx="147" />
  <path
     transform="matrix(1.000000,0.000000,0.000000,1.000000,0.000000,0.000000)"
     id="path8315"
     class="c"
     d="M130.0 66.0C130.0 235.0 130.0 235.0 130.0 235.0" />
  <path
     transform="matrix(1.000000,0.000000,0.000000,1.000000,0.000000,0.000000)"
     id="path8317"
     class="c"
     d="M169.0 67.0C169.0 236.0 169.0 236.0 169.0 236.0" />
</svg>

<svg xmlns="http://www.w3.org/2000/svg" viewBox="0 0 300 300" width="300" height="300"><style>  .a{fill:#808080;}.b{stroke-width:10;stroke:#000;}.c{fill:none;stroke-width:10;stroke:#000;}</style><style>    .a{fill:#808080;}.b{stroke-width:10;stroke:#000;}.c{fill:none;stroke-width:10;stroke:#000;}</style><circle cx="150" cy="150" r="150" class="a" fill="#808080"/><path d="M298 135 249 79 248 218l-196 0 67 77c117 23 191-79 179-160z" fill="#4d4d4d"/><rect width="200" height="139" x="48" y="83" fill="#e6e6e6"/><path d="m34 82c229 0 229 0 229 0l0 0 0 0" class="b"/><path d="m147 180c-39 14-63 4-75 40l149 0c-22-38-27-26-74-40z" fill="#f60"/><path d="m34 221c229 0 229 0 229 0l0 0 0 0" class="b"/><path d="m51 67c0 169 0 169 0 169" class="c"/><path d="m246 67c0 169 0 169 0 169" class="c"/><path d="m92 67c0 169 0 169 0 169" class="c"/><path d="m206 67c0 169 0 169 0 169" class="c"/><circle cx="147" cy="146" r="41" style="fill:#deaa87;stroke-width:10"/><path d="m130 66c0 169 0 169 0 169" class="c"/><path d="m169 67c0 169 0 169 0 169" class="c"/></svg>
